static/img/main-logo.svg

<svg width="208" height="208" xmlns="http://www.w3.org/2000/svg" fill="none">
 <defs>
  <clipPath id="clip0">
   <rect width="208" height="208" fill="white" id="svg_1"/>
  </clipPath>
 </defs>
 <g>
  <title>Layer 1</title>
  <g clip-path="url(#clip0)" id="svg_2">
   <path d="m113.185,30.4842l0,-12.74c8.198,0.6358 16.292,2.1514 24.126,4.5175l5.687,-16.47752c-25.334,-7.70227 -52.5934,-7.70227 -77.9269,0l5.6868,16.47752c7.8337,-2.3661 15.928,-3.8817 24.126,-4.5175l0,12.74c-24.1074,2.224 -46.3838,13.1074 -62.2142,30.3956c-15.8304,17.2881 -24.0017,39.6562 -22.82103,62.4702c1.18063,22.814 11.62283,44.325 29.16313,60.078c17.5404,15.752 40.8347,24.539 65.0572,24.539c24.222,0 47.517,-8.787 65.057,-24.539c17.54,-15.753 27.983,-37.264 29.163,-60.078c1.181,-22.814 -6.99,-45.1821 -22.821,-62.4702c-15.83,-17.2882 -38.107,-28.1716 -62.214,-30.3956l-0.069,0zm-9.202,160.1928c-14.9969,0 -29.6567,-4.194 -42.126,-12.05c-12.4692,-7.857 -22.1878,-19.024 -27.9268,-32.088c-5.739,-13.065 -7.2405,-27.442 -4.3148,-41.311c2.9257,-13.8699 10.1472,-26.61 20.7515,-36.6095c10.6042,-9.9994 24.1148,-16.8091 38.8233,-19.568c14.7088,-2.7588 29.9538,-1.3429 43.8098,4.0688c13.855,5.4117 25.697,14.576 34.028,26.3341c8.332,11.7581 12.779,25.5816 12.779,39.7236c0,18.963 -7.988,37.149 -22.208,50.558c-14.22,13.409 -33.506,20.942 -53.616,20.942z" fill="#cd722e" id="svg_3"/>
   <path d="m193.007,61.425l15.131,-9.75c-8.741,-11.986 -19.747,-22.3528 -32.467,-30.5825l-10.339,14.2675c10.841,7.0153 20.222,15.8505 27.675,26.065z" fill="#cd722e" id="svg_4"/>
   <path d="m42.8752,35.2625l-10.3397,-14.2675c-12.7449,8.2235 -23.77411,18.5907 -32.5355,30.5825l15.1304,9.75c7.4735,-10.2204 16.8785,-19.056 27.7448,-26.065z" fill="#cd722e" id="svg_5"/>
   <path d="m131.59,130l-18.405,-13l0,-47.6775c0.077,-1.1821 -0.104,-2.3664 -0.531,-3.4802c-0.426,-1.1137 -1.09,-2.1333 -1.951,-2.9959c-0.86,-0.8627 -1.899,-1.5501 -3.052,-2.02c-1.153,-0.4698 -2.395,-0.7122 -3.651,-0.7122c-1.256,0 -2.498,0.2424 -3.651,0.7122c-1.153,0.4699 -2.1916,1.1573 -3.0521,2.02c-0.8604,0.8626 -1.5245,1.8822 -1.9514,2.9959c-0.4268,1.1138 -0.6074,2.2981 -0.5306,3.4802l0,51.9995c-0.0103,0.67 0.0826,1.338 0.2757,1.983c0.132,0.64 0.3766,1.256 0.7238,1.82c0.2207,0.577 0.5604,1.107 0.9995,1.56c0.1031,0.111 0.1953,0.231 0.2757,0.357c0.3946,0.42 0.8335,0.802 1.3097,1.138l0.3792,0.26l36.3955,25.74c1.572,1.161 3.518,1.78 5.515,1.755c1.446,0.011 2.875,-0.29 4.178,-0.882c1.302,-0.591 2.443,-1.457 3.335,-2.531c1.454,-1.841 2.074,-4.151 1.725,-6.423c-0.349,-2.272 -1.638,-4.322 -3.586,-5.699l-14.751,-10.4z" fill="#cd722e" id="svg_6"/>
  </g>
 </g>
</svg>

<svg width="208" height="208" viewBox="0 0 208 208" fill="none" xmlns="http://www.w3.org/2000/svg">
<g clip-path="url(#clip0)">
<path d="M113.185 30.4842V17.7442C121.383 18.38 129.477 19.8956 137.311 22.2617L142.998 5.78418C117.664 -1.91809 90.4046 -1.91809 65.0711 5.78418L70.7579 22.2617C78.5916 19.8956 86.6859 18.38 94.8839 17.7442V30.4842C70.7765 32.7082 48.5001 43.5916 32.6697 60.8798C16.8393 78.1679 8.668 100.536 9.84867 123.35C11.0293 146.164 21.4715 167.675 39.0118 183.428C56.5522 199.18 79.8465 207.967 104.069 207.967C128.291 207.967 151.586 199.18 169.126 183.428C186.666 167.675 197.109 146.164 198.289 123.35C199.47 100.536 191.299 78.1679 175.468 60.8798C159.638 43.5916 137.361 32.7082 113.254 30.4842H113.185ZM103.983 190.677C88.9861 190.677 74.3263 186.483 61.857 178.627C49.3878 170.77 39.6692 159.603 33.9302 146.539C28.1912 133.474 26.6897 119.097 29.6154 105.228C32.5411 91.3581 39.7626 78.618 50.3669 68.6185C60.9711 58.6191 74.4817 51.8094 89.1902 49.0505C103.899 46.2917 119.144 47.7076 133 53.1193C146.855 58.531 158.697 67.6953 167.028 79.4534C175.36 91.2115 179.807 105.035 179.807 119.177C179.807 138.14 171.819 156.326 157.599 169.735C143.379 183.144 124.093 190.677 103.983 190.677Z" fill="white"/>
<path d="M193.007 61.425L208.138 51.675C199.397 39.689 188.391 29.3222 175.671 21.0925L165.332 35.36C176.173 42.3753 185.554 51.2105 193.007 61.425Z" fill="white"/>
<path d="M42.8752 35.2625L32.5355 20.995C19.7906 29.2185 8.76139 39.5857 0 51.5775L15.1304 61.3275C22.6039 51.1071 32.0089 42.2715 42.8752 35.2625Z" fill="white"/>
<path d="M131.59 130L113.185 117V69.3225C113.262 68.1404 113.081 66.9561 112.654 65.8423C112.228 64.7286 111.564 63.709 110.703 62.8464C109.843 61.9837 108.804 61.2963 107.651 60.8264C106.498 60.3566 105.256 60.1142 104 60.1142C102.744 60.1142 101.502 60.3566 100.349 60.8264C99.196 61.2963 98.1574 61.9837 97.2969 62.8464C96.4365 63.709 95.7724 64.7286 95.3455 65.8423C94.9187 66.9561 94.7381 68.1404 94.8149 69.3225V121.322C94.8046 121.992 94.8975 122.66 95.0906 123.305C95.2226 123.945 95.4672 124.561 95.8144 125.125C96.0351 125.702 96.3748 126.232 96.8139 126.685C96.917 126.796 97.0092 126.916 97.0896 127.042C97.4842 127.462 97.9231 127.844 98.3993 128.18L98.7785 128.44L135.174 154.18C136.746 155.341 138.692 155.96 140.689 155.935C142.135 155.946 143.564 155.645 144.867 155.053C146.169 154.462 147.31 153.596 148.202 152.522C149.656 150.681 150.276 148.371 149.927 146.099C149.578 143.827 148.289 141.777 146.341 140.4L131.59 130Z" fill="white"/>
</g>
<defs>
<clipPath id="clip0">
<rect width="208" height="208" fill="white"/>
</clipPath>
</defs>
</svg>
